!!!COM: Bach, Johann Sebastian
!!!CDT: 1685/3//-1750/7/28/
!!!OTL@@DE: O wie selig seid ihr doch, ihr Frommen
!!!AGN: 4-Part Chorale
!!!SCT: BH 213
!!!SCT: BWV 405
**harm	**root	**kern	**kern	**kern	**kern
!	!	!bass	!tenor	!alto	!soprno
*	*Iorgan	*Iorgan	*Iorgan	*Iorgan	*Iorgan
*	*	*clefF4	*clefF4	*clefG2	*clefG2
*M4/4	*M4/4	*M4/4	*M4/4	*M4/4	*M4/4
*met(c)	*met(c)	*met(c)	*met(c)	*met(c)	*met(c)
*MM60	*MM60	*MM60	*MM60	*MM60	*MM60
*k[b-e-a-d-g-]	*k[b-e-a-d-g-]	*k[b-e-a-d-g-]	*k[b-e-a-d-g-]	*k[b-e-a-d-g-]	*k[b-e-a-d-g-]
*b-:	*b-:	*b-:	*b-:	*b-:	*b-:
=1-	=1-	=1-	=1-	=1-	=1-
i	4DD	4BB-	4B-	4d-	4f
ivb	4GG	8AA-	4B-	4e-	4b-
.	.	8GG-	.	.	.
v7	4AA	4FF	4c	4e-	4a-
i	4DD	4BB-	4B-	[4d-	8g-
.	.	.	.	.	8f
=2	=2	=2	=2	=2	=2
iv7	8GG	4EE-	8B-	8d-]	4g-
iiob	8EE	.	8G-	8c	.
IIIb	4FF	8FF	4A-	[4d-	4f
.	.	8GG-	.	.	.
-VII	4CC	4AA-	4A-	8d-]	4e-
.	.	.	.	8c	.
III	4FF	4D-	4A-	4d-	8f
.	.	.	.	.	8g-
=3	=3	=3	=3	=3	=3
V7b/-VII	4GG	4GG-	8B-	4d-	2e-
.	.	.	8G-	.	.
-VII	4CC	4AA-	8E-	4c	.
.	.	.	8A-	.	.
III;	2FF;	2DD-;	2F;	2A-;	2d-;
=4	=4	=4	=4	=4	=4
III	4FF	4D-	8A-	4d-	8f
.	.	.	8B-	.	8g-
-VII	4CC	8C	8c	8e-	4a-
.	.	8D	8B-	8f	.
IV	4GG	8E-	4B-	4e-	4.g
.	.	8D-	.	.	.
viiob	4CC#	4C	4c	4e-	.
.	.	.	.	.	8a
=5	=5	=5	=5	=5	=5
Ib	8DD	8D	8B-	8f	4b-
viio/V	8GG#	8E	8G	8g	.
v	4AA	4F	4c	4f	8a-
.	.	.	.	.	8b-
vb	4AA	4AA-	4c	4f	4cc
i	4DD	4BB-	4d-	4f	8b-
.	.	.	.	.	8a-
!!linebreak: 2
=6	=6	=6	=6	=6	=6
V7/V	2EE	4C	8G	4f	2g
.	.	.	4c	.	.
.	.	4CC	.	4e	.
.	.	.	8B-	.	.
V;	2AA;	2FF;	2A;	2c;	2f;
=7	=7	=7	=7	=7	=7
r	4r	4r	4r	4r	4r
V	4AA	4FF	4C	4A	4f
IVb	4GG	4GG	4BB-	4B-	4e-
Vb	4AA	4AA	4F	4c	4c
=8	=8	=8	=8	=8	=8
i	2DD	4BB-	2F	4c	2d-
.	.	4BBB-	.	4B-	.
V;	2AA;	2FF;	2F;	2A;	2c;
=9	=9	=9	=9	=9	=9
ib	4DD	4D-	4F	4B-	4B-
Vb	4AA	4AA	4F	4F	4c
i	4DD	4BB-	8F	4B-	4d-
.	.	.	8G-	.	.
-VIIb	4CC	4C	8F	4A-	4e-
.	.	.	8E-	.	.
=10	=10	=10	=10	=10	=10
III	4FF	4D-	8D-	4A-	4f
.	.	.	8F	.	.
viiob/-VII	4BB	8C	8E-	4d-	4g
.	.	8BB-	8D-	.	.
viiob	4CC#	4C	4E-	4c	4a
ib	4DD	8D-	8F	8B-	4b-
.	.	8E-	8G-	8c	.
=11	=11	=11	=11	=11	=11
ic	4DD	4F	4F	8d-	4b-
.	.	.	.	16c	.
.	.	.	.	16B-	.
V	4AA	4FF	4F	4c	4a
I;	2DD;	2BB-;	2F;	2d;	2b-;
==	==	==	==	==	==
*-	*-	*-	*-	*-	*-
!!chor2scor: -l 2 -s 0.6 -o %b.pmx
!!!YEC: Copyright 2003 by Craig Stuart Sapp
!!!license: GNU General Public License (http://www.gnu.org/copyleft/gpl.html)
!!!SMA: 371 Bach Chorales, edited by Ludwig Erk, C.F. Peters
!!!PDT: 1850, 1865
!!!ONB: Harmony and Root analysis done manually by Craig Sapp
